svgs/sharp-light/folder-xmark.svg

<svg xmlns="http://www.w3.org/2000/svg" viewBox="0 0 512 512"><!--! Font Awesome Pro 6.6.0 by @fontawesome - https://fontawesome.com License - https://fontawesome.com/license (Commercial License) Copyright 2024 Fonticons, Inc. --><path d="M32 32l192 0 48 64 208 0 32 0 0 32 0 320 0 32-32 0L32 480 0 480l0-32L0 64 0 32l32 0zm240 96l-16 0-9.6-12.8L208 64 32 64l0 384 448 0 0-320-208 0zm-80.6 72.8l11.3 11.3L256 265.4l53.3-53.3 11.3-11.3 22.6 22.6-11.3 11.3L278.6 288l53.3 53.3 11.3 11.3-22.6 22.6-11.3-11.3L256 310.6l-53.3 53.3-11.3 11.3-22.6-22.6 11.3-11.3L233.4 288l-53.3-53.3-11.3-11.3 22.6-22.6z"/></svg>

<svg xmlns="http://www.w3.org/2000/svg" viewBox="0 0 512 512"><!--! Font Awesome Pro 6.4.0 by @fontawesome - https://fontawesome.com License - https://fontawesome.com/license (Commercial License) Copyright 2023 Fonticons, Inc. --><path d="M32 32H224l48 64H480h32v32V448v32H480 32 0V448 64 32H32zm240 96H256l-9.6-12.8L208 64H32V448H480V128H272zm-80.6 72.8l11.3 11.3L256 265.4l53.3-53.3 11.3-11.3 22.6 22.6-11.3 11.3L278.6 288l53.3 53.3 11.3 11.3-22.6 22.6-11.3-11.3L256 310.6l-53.3 53.3-11.3 11.3-22.6-22.6 11.3-11.3L233.4 288l-53.3-53.3-11.3-11.3 22.6-22.6z"/></svg>
